**harm	**harte	**timestamp	**phrase	**leadinstrument	**kern
*M4/4	*M4/4	*	*	*	*
*D:	*D:	*	*	*	*D:
1r;	N	0	.	r	1r;
=1	=1	=1	=1	=1	=1
*>A_intro	*>A_intro	*>A_intro	*>A_intro	*>A_intro	*>A_intro
1Im7	D:7	0.279	newline	synthesizer	1D 1f# 1a 1cc#
=2	=2	=2	=2	=2	=2
1Im7	D:7	2.403	.	synthesizer	1D 1f# 1a 1cc#
=3	=3	=3	=3	=3	=3
1Im7	D:7	4.528	newline	synthesizer	1D 1f# 1a 1cc#
=4	=4	=4	=4	=4	=4
1Im7	D:7	6.612	.	synthesizer	1D 1f# 1a 1cc#
=5	=5	=5	=5	=5	=5
1Im7	D:7	8.697	.	synthesizer	1D 1f# 1a 1cc#
=6	=6	=6	=6	=6	=6
1Im7	D:7	10.781	.	synthesizer	1D 1f# 1a 1cc#
=7	=7	=7	=7	=7	=7
*>B_verse	*>B_verse	*>B_verse	*>B_verse	*>B_verse	*>B_verse
1I	D:maj	12.866	newline	voice	1D 1f# 1a
=8	=8	=8	=8	=8	=8
2I	D:maj	14.965	.	voice	2D 2f# 2a
2VI7	B:7	16.014	.	voice	2B 2dd# 2ff# 2aa
=9	=9	=9	=9	=9	=9
2II7	E:7	17.063	.	voice	2E 2g# 2b 2dd
2V7	A:7	18.113	.	voice	2A 2cc# 2ee 2gg
=10	=10	=10	=10	=10	=10
1I	D:maj	19.162	.	voice	1D 1f# 1a
=11	=11	=11	=11	=11	=11
1I	D:maj	21.261	newline	voice	1D 1f# 1a
=12	=12	=12	=12	=12	=12
2I	D:maj	23.342	.	voice	2D 2f# 2a
2VI7	B:7	24.382	.	voice	2B 2dd# 2ff# 2aa
=13	=13	=13	=13	=13	=13
1II7	E:7	25.422	.	voice	1E 1g# 1b 1dd
=14	=14	=14	=14	=14	=14
1V7	A:7	27.503	.	voice	1A 1cc# 1ee 1gg
=15	=15	=15	=15	=15	=15
1I	D:maj	29.583	newline	voice	1D 1f# 1a
=16	=16	=16	=16	=16	=16
1I	D:maj	31.675	.	voice	1D 1f# 1a
=17	=17	=17	=17	=17	=17
1IV	G:maj	33.767	.	voice	1G 1b 1dd
=18	=18	=18	=18	=18	=18
1II7b	E:7/3	35.859	.	voice	1e 1G# 1b 1dd
=19	=19	=19	=19	=19	=19
1I	D:maj	37.951	newline	voice	1D 1f# 1a
=20	=20	=20	=20	=20	=20
2I	D:maj	40.046	.	voice	2D 2f# 2a
2VI7	B:7	41.094	.	voice	2B 2dd# 2ff# 2aa
=21	=21	=21	=21	=21	=21
2II7	E:7	42.141	.	voice	2E 2g# 2b 2dd
2V7	A:7	43.189	.	voice	2A 2cc# 2ee 2gg
=22	=22	=22	=22	=22	=22
*>A_trans	*>A_trans	*>A_trans	*>A_trans	*>A_trans	*>A_trans
1Im7	D:7	44.236	newline	synthesizer	1D 1f# 1a 1cc#
=23	=23	=23	=23	=23	=23
1Im7	D:7	46.307	.	synthesizer	1D 1f# 1a 1cc#
=24	=24	=24	=24	=24	=24
1Im7	D:7	48.378	.	synthesizer	1D 1f# 1a 1cc#
=25	=25	=25	=25	=25	=25
1Im7	D:7	50.449	.	synthesizer	1D 1f# 1a 1cc#
=26	=26	=26	=26	=26	=26
*>B_verse	*>B_verse	*>B_verse	*>B_verse	*>B_verse	*>B_verse
1I	D:maj	52.52	newline	voice	1D 1f# 1a
=27	=27	=27	=27	=27	=27
2I	D:maj	54.597	.	voice	2D 2f# 2a
2VI7	B:7	55.636	.	voice	2B 2dd# 2ff# 2aa
=28	=28	=28	=28	=28	=28
2II7	E:7	56.675	.	voice	2E 2g# 2b 2dd
2V7	A:7	57.714	.	voice	2A 2cc# 2ee 2gg
=29	=29	=29	=29	=29	=29
1I	D:maj	58.752	.	voice	1D 1f# 1a
=30	=30	=30	=30	=30	=30
1I	D:maj	60.83	newline	voice	1D 1f# 1a
=31	=31	=31	=31	=31	=31
2I	D:maj	62.908	.	voice	2D 2f# 2a
2VI7	B:7	63.947	.	voice	2B 2dd# 2ff# 2aa
=32	=32	=32	=32	=32	=32
1II7	E:7	64.986	.	voice	1E 1g# 1b 1dd
=33	=33	=33	=33	=33	=33
1V7	A:7	67.064	.	voice	1A 1cc# 1ee 1gg
=34	=34	=34	=34	=34	=34
1I	D:maj	69.142	newline	voice	1D 1f# 1a
=35	=35	=35	=35	=35	=35
1I	D:maj	71.229	.	voice	1D 1f# 1a
=36	=36	=36	=36	=36	=36
1IV	G:maj	73.316	.	voice	1G 1b 1dd
=37	=37	=37	=37	=37	=37
1II7b	E:7/3	75.402	.	voice	1e 1G# 1b 1dd
=38	=38	=38	=38	=38	=38
1I	D:maj	77.489	newline	voice	1D 1f# 1a
=39	=39	=39	=39	=39	=39
2I	D:maj	79.568	.	voice	2D 2f# 2a
2VI7	B:7	80.607	.	voice	2B 2dd# 2ff# 2aa
=40	=40	=40	=40	=40	=40
2II7	E:7	81.646	.	voice	2E 2g# 2b 2dd
2V7	A:7	82.685	.	voice	2A 2cc# 2ee 2gg
=41	=41	=41	=41	=41	=41
1I	D:maj	83.725	.	voice	1D 1f# 1a
=42	=42	=42	=42	=42	=42
*>B2_solo	*>B2_solo	*>B2_solo	*>B2_solo	*>B2_solo	*>B2_solo
1I	D:maj	85.803	newline	harmonica	1D 1f# 1a
=43	=43	=43	=43	=43	=43
2I	D:maj	87.873	.	harmonica	2D 2f# 2a
2VI7	B:7	88.907	.	harmonica	2B 2dd# 2ff# 2aa
=44	=44	=44	=44	=44	=44
2II7	E:7	89.942	.	harmonica	2E 2g# 2b 2dd
2V7	A:7	90.977	.	harmonica	2A 2cc# 2ee 2gg
=45	=45	=45	=45	=45	=45
1I	D:maj	92.011	.	harmonica	1D 1f# 1a
=46	=46	=46	=46	=46	=46
1I	D:maj	94.081	newline	harmonica	1D 1f# 1a
=47	=47	=47	=47	=47	=47
2I	D:maj	96.157	.	harmonica	2D 2f# 2a
2VI7	B:7	97.195	.	harmonica	2B 2dd# 2ff# 2aa
=48	=48	=48	=48	=48	=48
1II7	E:7	98.234	.	harmonica	1E 1g# 1b 1dd
=49	=49	=49	=49	=49	=49
1V7	A:7	100.31	.	harmonica	1A 1cc# 1ee 1gg
=50	=50	=50	=50	=50	=50
1I	D:maj	102.386	newline	guitar	1D 1f# 1a
=51	=51	=51	=51	=51	=51
1Im7	D:7	104.458	.	guitar	1D 1f# 1a 1cc#
=52	=52	=52	=52	=52	=52
1IV	G:maj	106.53	.	guitar	1G 1b 1dd
=53	=53	=53	=53	=53	=53
1II7b	E:7/3	108.602	.	guitar	1e 1G# 1b 1dd
=54	=54	=54	=54	=54	=54
1I	D:maj	110.673	newline	guitar	1D 1f# 1a
=55	=55	=55	=55	=55	=55
2I	D:maj	112.766	.	guitar	2D 2f# 2a
2VI7	B:7	113.812	.	guitar	2B 2dd# 2ff# 2aa
=56	=56	=56	=56	=56	=56
2II7	E:7	114.858	.	guitar	2E 2g# 2b 2dd
2V7	A:7	115.904	.	guitar	2A 2cc# 2ee 2gg
=57	=57	=57	=57	=57	=57
*>A_trans	*>A_trans	*>A_trans	*>A_trans	*>A_trans	*>A_trans
1Im7	D:7	116.951	newline	synthesizer	1D 1f# 1a 1cc#
=58	=58	=58	=58	=58	=58
1Im7	D:7	119.018	.	synthesizer	1D 1f# 1a 1cc#
=59	=59	=59	=59	=59	=59
1Im7	D:7	121.086	.	synthesizer	1D 1f# 1a 1cc#
=60	=60	=60	=60	=60	=60
1Im7	D:7	123.153	.	synthesizer	1D 1f# 1a 1cc#
=61	=61	=61	=61	=61	=61
*>B2_verse	*>B2_verse	*>B2_verse	*>B2_verse	*>B2_verse	*>B2_verse
1I	D:maj	125.221	newline	voice	1D 1f# 1a
=62	=62	=62	=62	=62	=62
2I	D:maj	127.299	.	voice	2D 2f# 2a
2VI7	B:7	128.337	.	voice	2B 2dd# 2ff# 2aa
=63	=63	=63	=63	=63	=63
2II7	E:7	129.376	.	voice	2E 2g# 2b 2dd
2V7	A:7	130.415	.	voice	2A 2cc# 2ee 2gg
=64	=64	=64	=64	=64	=64
1I	D:maj	131.454	.	voice	1D 1f# 1a
=65	=65	=65	=65	=65	=65
1I	D:maj	133.532	newline	voice	1D 1f# 1a
=66	=66	=66	=66	=66	=66
2I	D:maj	135.606	.	voice	2D 2f# 2a
2VI7	B:7	136.643	.	voice	2B 2dd# 2ff# 2aa
=67	=67	=67	=67	=67	=67
1II7	E:7	137.68	.	voice	1E 1g# 1b 1dd
=68	=68	=68	=68	=68	=68
1V7	A:7	139.754	.	voice	1A 1cc# 1ee 1gg
=69	=69	=69	=69	=69	=69
1I	D:maj	141.827	newline	voice	1D 1f# 1a
=70	=70	=70	=70	=70	=70
1I	D:maj	143.906	.	voice	1D 1f# 1a
=71	=71	=71	=71	=71	=71
1IV	G:maj	145.985	.	voice	1G 1b 1dd
=72	=72	=72	=72	=72	=72
1II7b	E:7/3	148.064	.	voice	1e 1G# 1b 1dd
=73	=73	=73	=73	=73	=73
1I	D:maj	150.142	newline	voice	1D 1f# 1a
=74	=74	=74	=74	=74	=74
2I	D:maj	152.219	.	voice	2D 2f# 2a
2VI7	B:7	153.257	.	voice	2B 2dd# 2ff# 2aa
=75	=75	=75	=75	=75	=75
2II7	E:7	154.296	.	voice	2E 2g# 2b 2dd
2V7	A:7	155.334	.	voice	2A 2cc# 2ee 2gg
=76	=76	=76	=76	=76	=76
1I	D:maj	156.372	.	voice	1D 1f# 1a
=77	=77	=77	=77	=77	=77
1I	D:maj	158.449	newline	voice	1D 1f# 1a
=78	=78	=78	=78	=78	=78
2I	D:maj	160.505	.	voice	2D 2f# 2a
2VI7	B:7	161.534	.	voice	2B 2dd# 2ff# 2aa
=79	=79	=79	=79	=79	=79
2II7	E:7	162.562	.	voice	2E 2g# 2b 2dd
2V7	A:7	163.59	.	voice	2A 2cc# 2ee 2gg
=80	=80	=80	=80	=80	=80
1I	D:maj	164.618	.	voice	1D 1f# 1a
=81	=81	=81	=81	=81	=81
*>_fadeout	*>_fadeout	*>_fadeout	*>_fadeout	*>_fadeout	*>_fadeout
1I	D:maj	166.675	newline	voice	1D 1f# 1a
=82	=82	=82	=82	=82	=82
2I	D:maj	168.735	.	voice	2D 2f# 2a
2VI7	B:7	169.765	.	voice	2B 2dd# 2ff# 2aa
=83	=83	=83	=83	=83	=83
2II7	E:7	170.795	.	voice	2E 2g# 2b 2dd
2V7	A:7	171.824	.	voice	2A 2cc# 2ee 2gg
=84	=84	=84	=84	=84	=84
1I	D:maj	172.854	.	voice	1D 1f# 1a
=85	=85	=85	=85	=85	=85
1I	D:maj	174.914	newline	voice	1D 1f# 1a
=86	=86	=86	=86	=86	=86
2I	D:maj	176.517	.	voice	2D 2f# 2a
2VI7	B:7	177.318	.	voice	2B 2dd# 2ff# 2aa
=87	=87	=87	=87	=87	=87
2II7	E:7	178.12	.	voice	2E 2g# 2b 2dd
2V7	A:7	178.921	.	voice	2A 2cc# 2ee 2gg
1r;	N	179.722	.	r	1r;
1r;	N	183.667	.	r	1r;
*-	*-	*-	*-	*-	*-
!!!OTL: Walk Right In
!!!COC: Dr. Hook
!!!BillboardChartDate: 1977/07/09
!!!BillboardPeak: 46
!!!BillboardWeeksOnChart: 10
!!!SampleTargetRank: 62
!!!SampleActualRank: 63
!!!SampleID#: 0761
!!!RDF**harmony: **recip + pitch class of root + harmonic quality
!!!RDF**harte: Chris Harte's syntax, used by MIREX
!!!RDF**phrase: newline = linebreak in original McGill transcription
!!!RDF**timestamp: McGill audio timestamp in seconds
!!!RDF**leadinstrument: original McGill primary instrumentation annotation
!!!RDT: 2017/01/12/
!!!ENC: Nathaniel Condit-Schultz
!!!EST: Awating manual error checking and editing.
